packages/calcite-ui-icons/icons/image-navigation-16.svg

<?xml version="1.0" encoding="UTF-8"?><svg id="icons" xmlns="http://www.w3.org/2000/svg" viewBox="0 0 16 16"><defs><style>.cls-1{fill:none;}</style></defs><rect class="cls-1" width="16" height="16"/><path d="M10.5,6.5c0-.55231.44769-1,1-1s1,.44769,1,1-.44769,1-1,1-1-.44769-1-1ZM2,5h2v2h-1.50372l2,2,2-2h-1.49628v-2h2v1.5l2-2-2-2v1.5h-2v-2h1.49396L4.49628.00232l-1.99768,1.99768h1.5014v2h-2v-1.5L0,4.5l2,2v-1.5ZM16,4v11H2v-6h1v3.69354l2.30005-2.45337c.11041-.1178.28949-.1178.39996,0s.28955.1178.40002,0l2.01733-2.15179c.10339-.11035.26868-.11835.38104-.01849l2.02979,1.8042c.10071.0896.24585.09351.35071.00958l1.22485-.82336c.11261-.09009.2702-.07812.36969.02808l2.52655,2.43597v-6.52435h-5v-1h6ZM15,12.91309l-2.80859-2.70898-.68652.45898c-.22461.18115-.50781.28125-.79492.28125-.3125,0-.61328-.11523-.8457-.32275l-1.50098-1.3335-1.53418,1.63623c-.24121.25684-.58008.4043-.92871.4043-.07812,0-.1543-.00732-.23047-.02148l-2.66992,2.69287h12v-1.08691Z"/></svg>

<svg xmlns="http://www.w3.org/2000/svg" viewBox="0 0 16 16"><path fill="none" d="M0 0h16v16H0z"/><path d="M10.5 6.5a1 1 0 1 1 2 0 1 1 0 0 1-2 0zM2 5h2v2H2.496l2 2 2-2H5V5h2v1.5l2-2-2-2V4H5V2h1.494L4.496.002 2.5 2H4v2H2V2.5l-2 2 2 2V5zm14-1v11H2V9h1v3.694l2.3-2.454c.11-.118.29-.118.4 0s.29.118.4 0l2.017-2.152a.27.27 0 0 1 .381-.018l2.03 1.804c.1.09.246.094.35.01l1.226-.824a.27.27 0 0 1 .37.028L15 11.524V5h-5V4h6zm-1 8.913l-2.809-2.709-.686.46a1.27 1.27 0 0 1-1.64-.041L8.362 9.287 6.83 10.924a1.28 1.28 0 0 1-1.16.383L3 14h12v-1.087z"/></svg>
